src/22/actions/edit-table-insert-row-under.svg

<svg xmlns="http://www.w3.org/2000/svg" viewBox="0 0 22 22"><path d="M3 3v5h1V4h2v4h1V4h2v4h1V4h2v4h1V4h2v4h1V4h2v4h1V3H3zm11 6l2.5 5L19 9h-5zM3 14v5h16v-5h-1v4h-2v-4h-1v4h-2v-4h-1v4h-2v-4H9v4H7v-4H6v4H4v-4H3z" fill="currentColor" color="#5d656b"/><path d="M3 8v1H7.281L4 12.281v.012L3.293 13H3v1h10v-1h-.281l.281-.281V11.28L11.281 13H8.72L11 10.719 12.719 9H13V8H3m5.719 1H11.28L11 9.281 7.281 13H4.72l4-4" fill="currentColor" color="#3daee9"/></svg>

<svg xmlns="http://www.w3.org/2000/svg" viewBox="0 0 22 22">
  <defs id="defs3051">
    <style type="text/css" id="current-color-scheme">
      .ColorScheme-Text {
        color:#5d656b;
      }
      .ColorScheme-Highlight {
        color:#3daee9;
      }
      </style>
  </defs>
 <path 
    style="fill:currentColor;fill-opacity:1;stroke:none" 
     d="M 3 3 L 3 8 L 4 8 L 4 4 L 6 4 L 6 7 L 6 8 L 7 8 L 7 7 L 7 4 L 9 4 L 9 8 L 10 8 L 10 4 L 12 4 L 12 8 L 13 8 L 13 4 L 15 4 L 15 7 L 15 8 L 16 8 L 16 7 L 16 4 L 18 4 L 18 8 L 19 8 L 19 4 L 19 3 L 4 3 L 3 3 z M 14 9 L 16.5 14 L 19 9 L 14 9 z M 3 14 L 3 19 L 4 19 L 12 19 L 13 19 L 15 19 L 16 19 L 18 19 L 19 19 L 19 18 L 19 14 L 18 14 L 18 18 L 16 18 L 16 14 L 15 14 L 15 18 L 13 18 L 13 14 L 12 14 L 12 18 L 10 18 L 10 14 L 9 14 L 9 18 L 7 18 L 7 14 L 6 14 L 6 18 L 4 18 L 4 14 L 3 14 z "
    class="ColorScheme-Text"
    />  
  <path
     style="fill:currentColor;fill-opacity:1;stroke:none" 
     class="ColorScheme-Highlight"
     d="M 3,8 3,9 4,9 7.28125,9 4,12.28125 4,12.292969 3.292969,13 3,13 l 0,1 1,0 7,0 2,0 0,-1 -0.28125,0 L 13,12.71875 13,11.28125 11.28125,13 11,13 8.71875,13 11,10.71875 12.71875,9 13,9 13,8 11,8 8.292969,8 4,8 3,8 M 8.71875,9 11,9 11.28125,9 11,9.28125 7.28125,13 l -2.5625,0 4,-4" />
</svg>
